X:1
T:Title
%%score 1 { 2 | 3 }
L:1/8
Q:1/4=90
M:6/8
K:G
V:1 treble nm="Grand Piano, Soprano"
V:2 bass nm="Choir Pad, Never Lose Sight of Jesus"
V:3 bass 
V:1
 [B,D] [DB]2 [DB][Ec]>[DB] | [^C_B] [D=B]2 [DB] [B,G]2- | [B,G][DA]>[D^G] [DA] D2 | %3
w: By~Edwin~Othello~Excell * * * *|||
 [DA] [DG]2- [DG] [DB]2 | [B,D] [DB]2 [DB][Ec]>[DB] | [^C_B] [D=B]2 [DB] [DG]2- | %6
w: |||
 [DG][EA]>[EA] [EA] [DG]2 | [DF] [DA]2- [DA] [DG]2- | [DG][DA]>[D^G] [DA] D2 | %9
w: |||
 [DA] [DG]2- [DG] [GB]2- | [GB][Gd]>[Gd] [Gd] [Fd]2 | [DF] [DG]2- [DG] [FA]2- | %12
w: |||
 [FA] [GB]2 [GB][Gc]>[GB] | [G_B] [G=B]2 [GB] [DG]2- | [DG][EA]>[EA] [EA] [DG]2 | %15
w: |||
 [DF] [DA]2- [DA] [DG]2- | [DG]6 |] %17
w: ||
V:2
 G, G,2 G,G,>G, | G, G,2 G, G,2- | G,[K:treble]C>B, C C2 | C[K:bass] B,2- B, G,2 | G, G,2 G,G,>G, | %5
 G, G,2 G, G,2- | G,[K:treble]C>C C B,2 | A, C2- C[K:bass] B,2- | B,C>B, C[K:treble] C2 | %9
 C B,2- B, D2- | D[K:bass]B,>B, B, C2 | C B,2- B,[K:treble] D2- | D D2 DE>D | ^C D2 D B,2- | %14
 B,C>C C[K:bass] B,2 | A, C2- C B,2- | B,6 |] %17
V:3
 G,, G,,2 G,,G,,>G,, | G,, G,,2 G,, G,,2- | G,,D,>D, D, D,2 | D, [G,,G,]2- [G,,G,] G,,2 | %4
 G,, G,,2 G,,G,,>G,, | G,, G,,2 G,, B,,2- | B,,C,>C, C, D,2 | D, D,2- D, G,2- | G,D,>D, D, D,2 | %9
 D, G,2- G, G,2- | G,G,>G, G, A,2 | A, G,2- G, D,2- | D, G,2 G,G,>G, | G, G,2 G, G,2- | %14
 G,C,>C, C, D,2 | D, D,2- D, G,2- | G,6 |] %17

